public/images/instagram-icon.svg

<svg width="36" height="36" viewBox="0 0 36 36" fill="none" xmlns="http://www.w3.org/2000/svg">
<path fill-rule="evenodd" clip-rule="evenodd" d="M26 0H10C4.47716 0 0 4.47716 0 10V26C0 31.5228 4.47716 36 10 36H26C31.5228 36 36 31.5228 36 26V10C36 4.47716 31.5228 0 26 0ZM32.5 26C32.489 29.5852 29.5852 32.489 26 32.5H10C6.4147 32.489 3.51098 29.5852 3.5 26V10C3.51098 6.4147 6.4147 3.51098 10 3.5H26C29.5852 3.51098 32.489 6.4147 32.5 10V26ZM27.5 10.5C28.6046 10.5 29.5 9.60456 29.5 8.5C29.5 7.39544 28.6046 6.5 27.5 6.5C26.3954 6.5 25.5 7.39544 25.5 8.5C25.5 9.60456 26.3954 10.5 27.5 10.5ZM18 9C13.0294 9 9 13.0294 9 18C9 22.9706 13.0294 27 18 27C22.9706 27 27 22.9706 27 18C27.0054 15.6114 26.0588 13.3191 24.3698 11.6302C22.6808 9.94118 20.3886 8.99468 18 9ZM12.5 18C12.5 21.0376 14.9624 23.5 18 23.5C21.0376 23.5 23.5 21.0376 23.5 18C23.5 14.9624 21.0376 12.5 18 12.5C14.9624 12.5 12.5 14.9624 12.5 18Z" fill="#080604"/>
</svg>

<svg xmlns="http://www.w3.org/2000/svg" width="36" height="36" fill="none"><path fill="#080604" fill-rule="evenodd" d="M26 0H10C4.477 0 0 4.477 0 10v16c0 5.523 4.477 10 10 10h16c5.523 0 10-4.477 10-10V10c0-5.523-4.477-10-10-10m6.5 26a6.52 6.52 0 0 1-6.5 6.5H10A6.52 6.52 0 0 1 3.5 26V10A6.52 6.52 0 0 1 10 3.5h16a6.52 6.52 0 0 1 6.5 6.5zm-5-15.5a2 2 0 1 0 0-4 2 2 0 0 0 0 4M18 9a9 9 0 1 0 9 9 8.98 8.98 0 0 0-9-9m-5.5 9a5.5 5.5 0 1 0 11 0 5.5 5.5 0 0 0-11 0" clip-rule="evenodd"/></svg>
